X: 4327
T: STUDENT'S CHORUS. (Faust.)
%R: air, jig
B: James Kerr "Merry Melodies" v.4 p.34 #327
Z: 2016 John Chambers <jc:trillian.mit.edu>
M: 6/8
L: 1/8
K: G
|:\
B2B (cBA) | G3 D3 |\
G2B A2d | d3- d2D ::\
d2d d^cB | A2F D2c |\
AFA B2d | d3- d2d :|\
B2B (cBA) | G3 D3 |
G2B A2d | d3- d2D |\
(dcB) (AGF) | E3 D2D |\
A3 AGF | B3- B2B |\
(dcB) (AGF) | E3 D2D |\
G3 A2B | G3- G2z |]

%%sep 1 1 500
%%sep 1 1 500

